dist/assets/img/questions/9/answers/2_1200.svg

<svg width="501" height="220" viewBox="0 0 501 220" fill="none" xmlns="http://www.w3.org/2000/svg">
<g filter="url(#filter0_di_1419_49479)">
<path fill-rule="evenodd" clip-rule="evenodd" d="M64.9728 28C60.8895 28 57.4614 31.0753 57.0198 35.1347L40.0478 191.135C39.5329 195.868 43.2402 200 48.0009 200H420.194C424.277 200 427.705 196.925 428.147 192.865L439.735 86.3552C440.017 83.7552 441.572 81.4876 443.783 80.0905C451.092 75.4716 458.108 68.9398 460.515 60.6384C460.535 60.5694 460.459 60.5131 460.399 60.5527C458.556 61.7723 455.944 63.5011 452.764 65.263C447.692 68.0734 442.195 63.7371 442.823 57.9721L445.119 36.8652C445.634 32.1324 441.927 28 437.166 28H64.9728Z" fill="#FFF0CB"/>
</g>
<defs>
<filter id="filter0_di_1419_49479" x="0" y="0" width="500.518" height="252" filterUnits="userSpaceOnUse" color-interpolation-filters="sRGB">
<feFlood flood-opacity="0" result="BackgroundImageFix"/>
<feColorMatrix in="SourceAlpha" type="matrix" values="0 0 0 0 0 0 0 0 0 0 0 0 0 0 0 0 0 0 127 0" result="hardAlpha"/>
<feOffset dy="12"/>
<feGaussianBlur stdDeviation="20"/>
<feComposite in2="hardAlpha" operator="out"/>
<feColorMatrix type="matrix" values="0 0 0 0 1 0 0 0 0 1 0 0 0 0 1 0 0 0 1 0"/>
<feBlend mode="normal" in2="BackgroundImageFix" result="effect1_dropShadow_1419_49479"/>
<feBlend mode="normal" in="SourceGraphic" in2="effect1_dropShadow_1419_49479" result="shape"/>
<feColorMatrix in="SourceAlpha" type="matrix" values="0 0 0 0 0 0 0 0 0 0 0 0 0 0 0 0 0 0 127 0" result="hardAlpha"/>
<feOffset dy="-4"/>
<feGaussianBlur stdDeviation="4"/>
<feComposite in2="hardAlpha" operator="arithmetic" k2="-1" k3="1"/>
<feColorMatrix type="matrix" values="0 0 0 0 0.883659 0 0 0 0 0.635314 0 0 0 0 0.0558422 0 0 0 0.4 0"/>
<feBlend mode="normal" in2="shape" result="effect2_innerShadow_1419_49479"/>
</filter>
</defs>
</svg>

<svg width="501" height="220" viewBox="0 0 501 220" fill="none" xmlns="http://www.w3.org/2000/svg"><g filter="url(#filter0_di_1419_49479)"><path fill-rule="evenodd" clip-rule="evenodd" d="M64.973 28a8 8 0 00-7.953 7.135l-16.972 156C39.533 195.868 43.24 200 48 200h372.193a8 8 0 007.953-7.135l11.588-106.51c.282-2.6 1.837-4.867 4.048-6.264 7.309-4.62 14.325-11.151 16.732-19.453a.077.077 0 00-.116-.085c-1.843 1.22-4.455 2.948-7.635 4.71-5.072 2.81-10.569-1.526-9.941-7.29l2.296-21.108c.515-4.733-3.192-8.865-7.953-8.865H64.973z" fill="#FFF0CB"/></g><defs><filter id="filter0_di_1419_49479" x="0" y="0" width="500.518" height="252" filterUnits="userSpaceOnUse" color-interpolation-filters="sRGB"><feFlood flood-opacity="0" result="BackgroundImageFix"/><feColorMatrix in="SourceAlpha" values="0 0 0 0 0 0 0 0 0 0 0 0 0 0 0 0 0 0 127 0" result="hardAlpha"/><feOffset dy="12"/><feGaussianBlur stdDeviation="20"/><feComposite in2="hardAlpha" operator="out"/><feColorMatrix values="0 0 0 0 1 0 0 0 0 1 0 0 0 0 1 0 0 0 1 0"/><feBlend in2="BackgroundImageFix" result="effect1_dropShadow_1419_49479"/><feBlend in="SourceGraphic" in2="effect1_dropShadow_1419_49479" result="shape"/><feColorMatrix in="SourceAlpha" values="0 0 0 0 0 0 0 0 0 0 0 0 0 0 0 0 0 0 127 0" result="hardAlpha"/><feOffset dy="-4"/><feGaussianBlur stdDeviation="4"/><feComposite in2="hardAlpha" operator="arithmetic" k2="-1" k3="1"/><feColorMatrix values="0 0 0 0 0.883659 0 0 0 0 0.635314 0 0 0 0 0.0558422 0 0 0 0.4 0"/><feBlend in2="shape" result="effect2_innerShadow_1419_49479"/></filter></defs></svg>
